TRatioPlot/r4.svg

<svg xmlns="http://www.w3.org/2000/svg" viewBox="0 0 698 475" preserveAspectRatio="none" width="698" height="475">
 <path d="M0,0H698V475H0Z" style="fill: white;"></path>
 <g>
  <svg viewBox="0 0 695 331" preserveAspectRatio="none" x="2" y="1" width="695" height="331">
   <path d="M0,0H695V331H0Z" style="fill: white;"></path>
   <g>
    <g transform="translate(70,33)">
     <path d="M0,0H556V281H0Z" style="fill: white; stroke: black; stroke-width: 1;"></path>
     <svg x="0" y="0" overflow="hidden" width="556" height="281" viewBox="0 0 556 281">
      <g>
       <path d="M0,281h33v-2h11v2h34v-2h11v2h11v-2h11v-1h11v-6h34v-28h11v-2h11v-12h11v-33h11v-30h11v-16h11v-37h12v-26h11v1h11v-45h11v-31h11v17h11v13h11v-3h11v55h11v33h12v29h11v34h11v14h11v14h11v17h11v16h11v7h11v11h12v2h11v4h11v3h11v2h11v-3h11v3h22v-2h12v2h44" style="stroke-linejoin: miter; stroke: #00009a; stroke-width: 1; fill: none;"></path>
      </g>
      <g>
       <path d="M3,281h6h5h6h5h6h5h6h5h6h6h5h6h5h6l5,-1h6h6l5,-1h6l5,-1l6,-1l5,-1l6,-2l5,-2l6,-3l6,-3l5,-4l6,-4l5,-6l6,-6l5,-8l6,-9l5,-9l6,-11l6,-12l5,-13l6,-14l5,-14l6,-15l5,-15l6,-15l6,-14l5,-14l6,-12l5,-11l6,-10l5,-7l6,-5l5,-3h6l6,3l5,4l6,7l5,9l6,11l5,13l6,13l5,14l6,15l6,15l5,15l6,15l5,13l6,13l5,12l6,11l6,10l5,9l6,8l5,6l6,6l5,5l6,4l5,3l6,3l6,2l5,2l6,1l5,1l6,1h5l6,1h5h6l6,1h5h6h5h6h5h6h6h5h6h5h6h5h6h5" style="fill: none; stroke: red; stroke-width: 2;"></path>
      </g>
     </svg>
     <g>
      <g transform="translate(0,281)">
       <path d="M0,0h556M0,-10V0M11,-5V0M22,-5V0M33,-5V0M44,-5V0M56,-10V0M67,-5V0M78,-5V0M89,-5V0M100,-5V0M111,-10V0M122,-5V0M133,-5V0M145,-5V0M156,-5V0M167,-10V0M178,-5V0M189,-5V0M200,-5V0M211,-5V0M222,-10V0M234,-5V0M245,-5V0M256,-5V0M267,-5V0M278,-10V0M289,-5V0M300,-5V0M311,-5V0M322,-5V0M334,-10V0M345,-5V0M356,-5V0M367,-5V0M378,-5V0M389,-10V0M400,-5V0M411,-5V0M423,-5V0M434,-5V0M445,-10V0M456,-5V0M467,-5V0M478,-5V0M489,-5V0M500,-10V0M512,-5V0M523,-5V0M534,-5V0M545,-5V0M556,-10V0" style="stroke: black; stroke-width: 1;"></path>
      </g>
      <g>
       <path d="M0,0v281M556,0v281M21,281H0M11,273H0M11,266H0M11,258H0M21,250H0M11,242H0M11,235H0M11,227H0M21,219H0M11,211H0M11,204H0M11,196H0M21,188H0M11,180H0M11,173H0M11,165H0M21,157H0M11,150H0M11,142H0M11,134H0M21,126H0M11,119H0M11,111H0M11,103H0M21,95H0M11,88H0M11,80H0M11,72H0M21,64H0M11,57H0M11,49H0M11,41H0M21,33H0M11,26H0M11,18H0M11,10H0M21,3H0M535,281H556M545,273H556M545,266H556M545,258H556M535,250H556M545,242H556M545,235H556M545,227H556M535,219H556M545,211H556M545,204H556M545,196H556M535,188H556M545,180H556M545,173H556M545,165H556M535,157H556M545,150H556M545,142H556M545,134H556M535,126H556M545,119H556M545,111H556M545,103H556M535,95H556M545,88H556M545,80H556M545,72H556M535,64H556M545,57H556M545,49H556M545,41H556M535,33H556M545,26H556M545,18H556M545,10H556M535,3H556" style="stroke: black; stroke-width: 1;"></path>
       <g font-family="Arial" font-size="12" space="preserve" fill="black" text-anchor="end">
        <text dy=".4em" transform="translate(-2,281)">
         0
        </text>
        <text dy=".4em" transform="translate(-2,250)">
         20
        </text>
        <text dy=".4em" transform="translate(-2,219)">
         40
        </text>
        <text dy=".4em" transform="translate(-2,188)">
         60
        </text>
        <text dy=".4em" transform="translate(-2,157)">
         80
        </text>
        <text dy=".4em" transform="translate(-2,126)">
         100
        </text>
        <text dy=".4em" transform="translate(-2,95)">
         120
        </text>
        <text dy=".4em" transform="translate(-2,64)">
         140
        </text>
        <text dy=".4em" transform="translate(-2,33)">
         160
        </text>
        <text dy=".4em" transform="translate(-2,3)">
         180
        </text>
       </g>
       <g font-family="Arial" font-size="12" space="preserve" transform="translate(-29)">
        <text fill="black" text-anchor="end" dy=".4em" transform="rotate(270)">
         y
        </text>
       </g>
      </g>
     </g>
    </g>
    <g transform="translate(70,2)" font-family="Arial" font-size="17" space="preserve">
     <text fill="black" text-anchor="middle" dy=".8em" transform="translate(278)">
      h1
     </text>
    </g>
   </g>
  </svg>
  <svg viewBox="0 0 695 141" preserveAspectRatio="none" x="2" y="333" width="695" height="141">
   <path d="M0,0H695V141H0Z" style="fill: white;"></path>
   <g>
    <g transform="translate(70,7)">
     <path d="M0,0H556V92H0Z" style="fill: white; stroke: black; stroke-width: 1;"></path>
     <svg x="0" y="0" overflow="hidden" width="556" height="92" viewBox="0 0 556 92">
      <g>
       <path d="M50,46l45,3l22,4l11,1l11,-1l11,2l11,3l11,-4l11,1h12l11,-1h44l11,1l11,-1h23l11,-1h67l11,-1h22l11,-1h11l11,-2h22l23,-2l33,-1L517,46l-33,-1l-23,-2h-22l-11,-2h-11l-11,-1h-22l-11,-1h-67l-11,-1h-23l-11,-1l-11,1h-44l-11,-1h-12l-11,1l-11,-4l-11,3l-11,2l-11,-1l-11,1l-22,4l-45,3Z" style="fill: #00ff00;"></path>
      </g>
      <g>
       <path d="M50,46l45,1l22,3h11l11,-1l11,2l11,1l11,-2l11,1h12l11,-1h100l11,-1h33l11,1h12l11,-1h22l11,-1h22l11,-1h11l23,-1h33L517,46h-33l-23,-1h-11l-11,-1h-22l-11,-1h-22l-11,-1h-12l-11,1h-33l-11,-1h-100l-11,-1h-12l-11,1l-11,-2l-11,1l-11,2l-11,-1h-11l-22,3l-45,1Z" style="fill: #ffff00;"></path>
      </g>
      <g>
       <path d="M39,35l44,3l23,10h11l11,-12l11,13l11,19l11,-39l11,17l11,7l12,-13l11,-3l11,11l11,-5l11,1l11,18l11,-17l11,-12l12,10l11,1l11,-12l11,19l11,3l11,1l11,6l11,-11l12,-9l11,-2l11,2l11,-4l11,8l11,-8l11,4l11,8l23,-17l33,3" style="stroke: black; stroke-width: 1; fill: none;"></path>
      </g>
     </svg>
    </g>
    <g>
     <path d="M70,53H625" style="stroke: black; stroke-width: 1; stroke-dasharray: 3,3;"></path>
    </g>
    <g>
     <path d="M70,41H625" style="stroke: black; stroke-width: 1; stroke-dasharray: 3,3;"></path>
    </g>
    <g>
     <path d="M70,87H625" style="stroke: black; stroke-width: 1; stroke-dasharray: 3,3;"></path>
    </g>
    <g>
     <path d="M70,76H625" style="stroke: black; stroke-width: 1; stroke-dasharray: 3,3;"></path>
    </g>
    <g>
     <path d="M70,64H625" style="stroke: black; stroke-width: 1; stroke-dasharray: 3,3;"></path>
    </g>
    <g>
     <path d="M70,30H625" style="stroke: black; stroke-width: 1; stroke-dasharray: 3,3;"></path>
    </g>
    <g>
     <path d="M70,19H625" style="stroke: black; stroke-width: 1; stroke-dasharray: 3,3;"></path>
    </g>
   </g>
  </svg>
 </g>
</svg>

<svg xmlns="http://www.w3.org/2000/svg" viewBox="0 0 698 475" preserveAspectRatio="none" width="698" height="475">
 <path d="M0,0H698V475H0Z" style="fill: white;"></path>
 <g>
  <svg viewBox="0 0 695 331" preserveAspectRatio="none" x="2" y="1" width="695" height="331">
   <path d="M0,0H695V331H0Z" style="fill: white;"></path>
   <g>
    <g transform="translate(70,33)">
     <path d="M0,0H556V281H0Z" style="fill: white; stroke: black; stroke-width: 1;"></path>
     <svg x="0" y="0" overflow="hidden" width="556" height="281" viewBox="0 0 556 281">
      <g>
       <path d="M0,281h33v-2h11v2h34v-2h11v2h11v-2h11v-1h11v-6h34v-28h11v-2h11v-12h11v-33h11v-30h11v-16h11v-37h12v-26h11v1h11v-45h11v-31h11v17h11v13h11v-3h11v55h11v33h12v29h11v34h11v14h11v14h11v17h11v16h11v7h11v11h12v2h11v4h11v3h11v2h11v-3h11v3h22v-2h12v2h44" style="stroke-linejoin: miter; stroke: #00009a; stroke-width: 1; fill: none;"></path>
      </g>
      <g>
       <path d="M3,281L9,281L14,281L20,281L25,281L31,281L36,281L42,281L47,281L53,281L59,281L64,281L70,281L75,281L81,281L86,280L92,280L98,280L103,279L109,279L114,278L120,277L125,276L131,274L136,272L142,269L148,266L153,262L159,258L164,252L170,246L175,238L181,229L186,220L192,209L198,197L203,184L209,170L214,156L220,141L225,126L231,111L237,97L242,83L248,71L253,60L259,50L264,43L270,38L275,35L281,35L287,38L292,42L298,49L303,58L309,69L314,82L320,95L325,109L331,124L337,139L342,154L348,169L353,182L359,195L364,207L370,218L376,228L381,237L387,245L392,251L398,257L403,262L409,266L414,269L420,272L426,274L431,276L437,277L442,278L448,279L453,279L459,280L464,280L470,280L476,281L481,281L487,281L492,281L498,281L503,281L509,281L515,281L520,281L526,281L531,281L537,281L542,281L548,281L553,281" style="fill: none; stroke: red; stroke-width: 2;"></path>
      </g>
     </svg>
     <g>
      <g transform="translate(0,281)">
       <path d="M0,0h556M0,-10V0M11,-5V0M22,-5V0M33,-5V0M44,-5V0M56,-10V0M67,-5V0M78,-5V0M89,-5V0M100,-5V0M111,-10V0M122,-5V0M133,-5V0M145,-5V0M156,-5V0M167,-10V0M178,-5V0M189,-5V0M200,-5V0M211,-5V0M222,-10V0M234,-5V0M245,-5V0M256,-5V0M267,-5V0M278,-10V0M289,-5V0M300,-5V0M311,-5V0M322,-5V0M334,-10V0M345,-5V0M356,-5V0M367,-5V0M378,-5V0M389,-10V0M400,-5V0M411,-5V0M423,-5V0M434,-5V0M445,-10V0M456,-5V0M467,-5V0M478,-5V0M489,-5V0M500,-10V0M512,-5V0M523,-5V0M534,-5V0M545,-5V0M556,-10V0" style="stroke: black; stroke-width: 1;"></path>
      </g>
      <g>
       <path d="M0,0v281M556,0v281M21,281H0M11,273H0M11,266H0M11,258H0M21,250H0M11,242H0M11,235H0M11,227H0M21,219H0M11,211H0M11,204H0M11,196H0M21,188H0M11,180H0M11,173H0M11,165H0M21,157H0M11,150H0M11,142H0M11,134H0M21,126H0M11,119H0M11,111H0M11,103H0M21,95H0M11,88H0M11,80H0M11,72H0M21,64H0M11,57H0M11,49H0M11,41H0M21,33H0M11,26H0M11,18H0M11,10H0M21,3H0M535,281H556M545,273H556M545,266H556M545,258H556M535,250H556M545,242H556M545,235H556M545,227H556M535,219H556M545,211H556M545,204H556M545,196H556M535,188H556M545,180H556M545,173H556M545,165H556M535,157H556M545,150H556M545,142H556M545,134H556M535,126H556M545,119H556M545,111H556M545,103H556M535,95H556M545,88H556M545,80H556M545,72H556M535,64H556M545,57H556M545,49H556M545,41H556M535,33H556M545,26H556M545,18H556M545,10H556M535,3H556" style="stroke: black; stroke-width: 1;"></path>
       <g font-family="Arial" font-size="12" space="preserve" fill="black" text-anchor="end">
        <text dy=".4em" transform="translate(-2,281)">
         0
        </text>
        <text dy=".4em" transform="translate(-2,250)">
         20
        </text>
        <text dy=".4em" transform="translate(-2,219)">
         40
        </text>
        <text dy=".4em" transform="translate(-2,188)">
         60
        </text>
        <text dy=".4em" transform="translate(-2,157)">
         80
        </text>
        <text dy=".4em" transform="translate(-2,126)">
         100
        </text>
        <text dy=".4em" transform="translate(-2,95)">
         120
        </text>
        <text dy=".4em" transform="translate(-2,64)">
         140
        </text>
        <text dy=".4em" transform="translate(-2,33)">
         160
        </text>
        <text dy=".4em" transform="translate(-2,3)">
         180
        </text>
       </g>
       <g font-family="Arial" font-size="12" space="preserve" transform="translate(-29)">
        <text fill="black" text-anchor="end" dy=".4em" transform="rotate(270)">
         y
        </text>
       </g>
      </g>
     </g>
    </g>
    <g transform="translate(70,2)" font-family="Arial" font-size="17" space="preserve">
     <text fill="black" text-anchor="middle" dy=".8em" transform="translate(278)">
      h1
     </text>
    </g>
   </g>
  </svg>
  <svg viewBox="0 0 695 141" preserveAspectRatio="none" x="2" y="333" width="695" height="141">
   <path d="M0,0H695V141H0Z" style="fill: white;"></path>
   <g>
    <g transform="translate(70,7)">
     <path d="M0,0H556V92H0Z" style="fill: white; stroke: black; stroke-width: 1;"></path>
     <svg x="0" y="0" overflow="hidden" width="556" height="92" viewBox="0 0 556 92">
      <g>
       <path d="M50,46l45,3l22,4l11,1l11,-1l11,2l11,3l11,-4l11,1h12l11,-1h44l11,1l11,-1h23l11,-1h67l11,-1h22l11,-1h11l11,-2h22l23,-2l33,-1L517,46l-33,-1l-23,-2h-22l-11,-2h-11l-11,-1h-22l-11,-1h-67l-11,-1h-23l-11,-1l-11,1h-44l-11,-1h-12l-11,1l-11,-4l-11,3l-11,2l-11,-1l-11,1l-22,4l-45,3Z" style="fill: #00ff00;"></path>
      </g>
      <g>
       <path d="M50,46l45,1l22,3h11l11,-1l11,2l11,1l11,-2l11,1h12l11,-1h100l11,-1h33l11,1h12l11,-1h22l11,-1h22l11,-1h11l23,-1h33L517,46h-33l-23,-1h-11l-11,-1h-22l-11,-1h-22l-11,-1h-12l-11,1h-33l-11,-1h-100l-11,-1h-12l-11,1l-11,-2l-11,1l-11,2l-11,-1h-11l-22,3l-45,1Z" style="fill: #ffff00;"></path>
      </g>
      <g>
       <path d="M39,35l44,3l23,10h11l11,-12l11,13l11,19l11,-39l11,17l11,7l12,-13l11,-3l11,11l11,-5l11,1l11,18l11,-17l11,-12l12,10l11,1l11,-12l11,19l11,3l11,1l11,6l11,-11l12,-9l11,-2l11,2l11,-4l11,8l11,-8l11,4l11,8l23,-17l33,3" style="stroke: black; stroke-width: 1; fill: none;"></path>
      </g>
     </svg>
    </g>
    <g>
     <path d="M70,53H625" style="stroke: black; stroke-width: 1; stroke-dasharray: 3,3;"></path>
    </g>
    <g>
     <path d="M70,41H625" style="stroke: black; stroke-width: 1; stroke-dasharray: 3,3;"></path>
    </g>
    <g>
     <path d="M70,87H625" style="stroke: black; stroke-width: 1; stroke-dasharray: 3,3;"></path>
    </g>
    <g>
     <path d="M70,76H625" style="stroke: black; stroke-width: 1; stroke-dasharray: 3,3;"></path>
    </g>
    <g>
     <path d="M70,64H625" style="stroke: black; stroke-width: 1; stroke-dasharray: 3,3;"></path>
    </g>
    <g>
     <path d="M70,30H625" style="stroke: black; stroke-width: 1; stroke-dasharray: 3,3;"></path>
    </g>
    <g>
     <path d="M70,19H625" style="stroke: black; stroke-width: 1; stroke-dasharray: 3,3;"></path>
    </g>
   </g>
  </svg>
 </g>
</svg>
